X:160
T: FREUNDLICH GLAENZT AN STILLER QUELLE
N: B0192
O: Europa, Mitteleuropa, Deutschland
R: Natur - Lied
M: 4/4
L: 1/8
K: F
c2B2 | A2G2F2G2 | A2F2
f2e2 | d2c2c3B | A2z2
G2A2 | B2G2A2B2 | c2A2
fefd | c2A2B2c2 | B2Az
fefd | c3AB2G2 | F2z2

